X:1
T:Buxtehude - Aria:  La Capricciosa in G Minor.
%%score { ( 1 2 5 ) | ( 3 4 ) }
L:1/8
Q:1/4=100
M:4/4
K:G
V:1 treble nm="Harpsichord" snm="Hch."
V:2 treble 
V:5 treble 
V:3 bass 
V:4 bass 
V:1
"^Partita 20"!f! d3 Pd e3 Me | d2 c2 MB2 G2 | B2 d2 G Pc2 MB- | BAMGF MG4 :: %4
[Q:1/4=100] B2 PB2 c3 B | ABcd MB2 G2 | B2 d2 z Mc2 B | MA2 A2 MG4[Q:1/4=80] :| %8
V:2
 z F G3 E A2- | A G2 PF z D- D2 | z G2 =F E2 D2 | E2 C2 [B,D]4 :: z D G2 z2 G2 | z2 A2 z D3 | %6
 z G2 =F E2 G2- | G2 F2 [B,D]4 :| %8
V:3
 B,3 PB, C3 C- | CB, C2 x2 z B, | D4 C2 z2 | C2 A,2 G,2 G,2 :: G,3 =F, z G, C2- | CB, A,2 z2 z B, | %6
 D2 B,2 C2 D2 | E2 D2 x2 G,2 :| %8
V:4
 G,4 z4 | F,G, A,2 G,4- | G,2 B,2- B,A,B,G, | z C, D,2 z G,,3 :: G,,4 E,4 | F, G,2 F, G,4- | %6
 G,2 G,2 A,2 B,2 | CA, z D, G, G,,3 :| %8
V:5
 x8 | x4 G2 x2 | x8 | x8 :: x8 | x8 | x8 | x8 :| %8

